X:2398
T:Ta Mee Nish Keayney 
T:(Iam now lamenting)
C:Thos Wynter, Andreas 
Z:Kiaull Vannin 398 
C:Traditional
O:Isle of Man
M:4/4 
L:1/8 
Q:80 
K:D 
B2 B >A F >F F >F|d2 d >B c2 d >e|f2 f >e d2 e >e|f6 d >e| 
f >f f >d  >e f >e|d2 d >B c2 ((3ABA)|B2 B >A F >F F >F|
d >d d >B c2 ((3FGA)|B >B B >A F >E {F}G A|B6 z|| 

